X:1
T:Pat Malone Forgot that he was Dead
M:6/8
L:1/4
K:F
 A B/2 c d/2| d c/2 A3/2| B A/2 F F/2| G F/2 D3/2| G G/2 G A/2| B B/2 A G/2|\
 c3| A B/2 c c/2| d c/2 A3/2| B A/2 F F/2| G F/2 D E/2| F A/2 G F/2|\
 E C/2 D E/2| F3/2 z F/2| F F/2 F G/2| B3/2 G F/2| E E/2 E C/2| A3/2 z A/2|\
 B B/2 B A/2| G G/2 A =B/2| c3/2 z/2 c/2c/2| d c/2 c =B/2| c3/2 z/2 F/2F/2|\
 F A/2 G A/2| D3/2 z F/2| F A/2 G F/2| E C/2 D E/2| F3/2 z C/2| F F/2 F F/2|\
 A G/2 D E/2| F3/2 z C/2| F F/2 F/2F/2G/2| A G/2 D E/2| F3/2 z/2 A/2B/2|\
 c c/2 d c/2| c/2 A A A/2| G A/2 G F/2| F/2 D z F/2| F A/2 G F/2| E C/2 D E/2|\
 F3/2 z||
